!!!SOCIAL_FUNCTION:	songs of the bear dance
!!!PDT:	1922
!!!OTL: No_6_Bear_Dance_Song_(b).krn
!!!REG: Southwest
!!!LANG: Non-Tone
!!!LING_GROUP: Uto-Aztecan
**kern
*staff1
*clefF4
*k[b-e-a-d-g-c-]
*M2/4
20d-\LL
20cn\
20d-\
20c\
20d-\JJ
=1
8d-\L
24B-\K
12G-\J
12d-\L
12B-\
12G-\J
=2||
*M3/4
2G-\
20d-\LL
20cn\
20d-\
20c\
20d-\JJ
=3||
*M2/4
8d-\L
24B-\K
12G-\J
12d-\L
12B-\
12G-\J
=4
4.G-\
16G-\LL
16B-\JJ
=5||
*M3/4
12B-\L
12G-\
12G-\J
4G-\
12B-\L
12G-\
12B-\J
=6||
*M2/4
8B-\L
24G-\K
12G-\J
12B-\L
12G-\
12G-\J
=7
4.G-\
16G-\LL
16B-\JJ
=8||
*M3/4
12B-\L
12G-\
12G-\J
4G-\
12B-\L
12G-\
12B-\J
=9||
*M2/4
8B-\L
24G-\K
12G-\J
12B-\L
12G-\
12G-\J
=10
2G-\
=11
4G-\
4G-\
=12
4G-\
4G-\
==
*-
